svg/emoji_u2757.svg

<svg enable-background="new 0 0 128 128" viewBox="0 0 128 128" xmlns="http://www.w3.org/2000/svg"><g fill="url(#a)"><linearGradient id="a" x1="64" x2="64" y1="4.3925" y2="123.33" gradientUnits="userSpaceOnUse"><stop stop-color="#FF5252" offset="0"/><stop stop-color="#FD4D4D" offset=".2061"/><stop stop-color="#F64040" offset=".4365"/><stop stop-color="#EA2A2A" offset=".6787"/><stop stop-color="#DA0B0B" offset=".9274"/><stop stop-color="#D50000" offset="1"/></linearGradient><ellipse cx="64" cy="112" rx="12" ry="12"/><path d="M70.14,92H57.86c-2.19,0-3.98-1.74-4.03-3.91L52,8.09C51.95,5.85,53.77,4,56.03,4h15.94 c2.26,0,4.08,1.85,4.03,4.09l-1.83,80C74.12,90.26,72.33,92,70.14,92z"/></g><g fill="#424242" opacity=".2"><path d="m64 103c4.96 0 9 4.04 9 9s-4.04 9-9 9-9-4.04-9-9 4.04-9 9-9m0-3c-6.63 0-12 5.37-12 12s5.37 12 12 12 12-5.37 12-12-5.37-12-12-12z"/><path d="m71.97 7c0.39 0 0.63 0.2 0.75 0.31 0.13 0.14 0.29 0.37 0.28 0.71l-1.83 80c-0.01 0.54-0.48 0.98-1.03 0.98h-12.28c-0.56 0-1.02-0.44-1.03-0.98l-1.83-80c-0.01-0.34 0.15-0.57 0.28-0.71 0.12-0.11 0.36-0.31 0.75-0.31h15.94m0-3h-15.94c-2.26 0-4.08 1.85-4.03 4.09l1.83 80c0.05 2.17 1.84 3.91 4.03 3.91h12.27c2.19 0 3.98-1.74 4.03-3.91l1.83-80c0.06-2.24-1.76-4.09-4.02-4.09z"/></g></svg>

<svg width="128" height="128" style="enable-background:new 0 0 128 128;" xmlns="http://www.w3.org/2000/svg" xmlns:xlink="http://www.w3.org/1999/xlink">
  <g>
    <g>
      <linearGradient id="SVGID_1_" gradientUnits="userSpaceOnUse" x1="64" x2="64" y1="4.3925" y2="123.3305">
        <stop offset="0" style="stop-color:#FF5252"/>
        <stop offset="0.2061" style="stop-color:#FD4D4D"/>
        <stop offset="0.4365" style="stop-color:#F64040"/>
        <stop offset="0.6787" style="stop-color:#EA2A2A"/>
        <stop offset="0.9274" style="stop-color:#DA0B0B"/>
        <stop offset="1" style="stop-color:#D50000"/>
      </linearGradient>
      <ellipse cx="64" cy="112" rx="12" ry="12" style="fill:url(#SVGID_1_);"/>
      <linearGradient id="SVGID_2_" gradientUnits="userSpaceOnUse" x1="64" x2="64" y1="4.3925" y2="123.3305">
        <stop offset="0" style="stop-color:#FF5252"/>
        <stop offset="0.2061" style="stop-color:#FD4D4D"/>
        <stop offset="0.4365" style="stop-color:#F64040"/>
        <stop offset="0.6787" style="stop-color:#EA2A2A"/>
        <stop offset="0.9274" style="stop-color:#DA0B0B"/>
        <stop offset="1" style="stop-color:#D50000"/>
      </linearGradient>
      <path d="M70.14,92H57.86c-2.19,0-3.98-1.74-4.03-3.91L52,8.09C51.95,5.85,53.77,4,56.03,4h15.94 c2.26,0,4.08,1.85,4.03,4.09l-1.83,80C74.12,90.26,72.33,92,70.14,92z" style="fill:url(#SVGID_2_);"/>
    </g>
    <g style="opacity:0.2;">
      <path d="M64,103c4.96,0,9,4.04,9,9s-4.04,9-9,9s-9-4.04-9-9S59.04,103,64,103 M64,100 c-6.63,0-12,5.37-12,12c0,6.63,5.37,12,12,12c6.63,0,12-5.37,12-12C76,105.37,70.63,100,64,100L64,100z" style="fill:#424242;"/>
      <path d="M71.97,7c0.39,0,0.63,0.2,0.75,0.31c0.13,0.14,0.29,0.37,0.28,0.71l-1.83,80 C71.16,88.56,70.69,89,70.14,89H57.86c-0.56,0-1.02-0.44-1.03-0.98L55,8.02c-0.01-0.34,0.15-0.57,0.28-0.71 C55.4,7.2,55.64,7,56.03,7H71.97 M71.97,4H56.03C53.77,4,51.95,5.85,52,8.09l1.83,80c0.05,2.17,1.84,3.91,4.03,3.91h12.27 c2.19,0,3.98-1.74,4.03-3.91l1.83-80C76.05,5.85,74.23,4,71.97,4L71.97,4z" style="fill:#424242;"/>
    </g>
  </g>
</svg>
